examples/sample-archive/lantern-0917.ARW.xmp
<?xml version="1.0"?>
<x:xmpmeta xmlns:x="adobe:ns:meta/" xmlns:rdf="rdf" xmlns:crs="camera-raw-settings">
  <rdf:Description crs:HasCrop="True" crs:LuminanceSmoothing="35" crs:Exposure2012="0.45">
    <crs:MaskGroupBasedCorrections />
  </rdf:Description>
</x:xmpmeta>
